svg/refresh.svg

<svg xmlns="http://www.w3.org/2000/svg" viewBox="0 0 32 32" enable-background="new 0 0 32 32"><path d="M 16 4 C 10.888652 4 6.6170137 7.16109 4.875 11.625 L 6.71875 12.375 C 8.1767363 8.63891 11.711348 6 16 6 C 19.240366 6 22.133605 7.5895584 23.9375 10 L 20 10 L 20 12 L 26 12 L 27 12 L 27 11 L 27 5 L 25 5 L 25 8.09375 C 22.810028 5.580832 19.57094 4 16 4 z M 25.28125 19.625 C 23.823264 23.36109 20.288652 26 16 26 C 12.723524 26 9.8434309 24.388336 8.03125 22 L 12 22 L 12 20 L 6 20 L 5 20 L 5 21 L 5 27 L 7 27 L 7 23.90625 C 9.1885848 26.385518 12.394607 28 16 28 C 21.111348 28 25.382986 24.83891 27.125 20.375 L 25.28125 19.625 z" color="#000" overflow="visible" enable-background="accumulate"/></svg>

<svg xmlns="http://www.w3.org/2000/svg" viewBox="0 0 32 32"><path d="M16 4c-5.11 0-9.383 3.16-11.125 7.625l1.844.75C8.176 8.64 11.71 6 16 6c3.24 0 6.134 1.59 7.938 4H20v2h7V5h-2v3.094C22.81 5.58 19.57 4 16 4zm9.28 15.625C23.824 23.36 20.29 26 16 26c-3.276 0-6.157-1.612-7.97-4H12v-2H5v7h2v-3.094C9.19 26.386 12.395 28 16 28c5.11 0 9.383-3.16 11.125-7.625l-1.844-.75z"/></svg>
